X:532233
F:http://www.vwml.org/record/HAM/5/32/23%%VWML:HAM-5-32-23-0
T:As I was a-riding
S:Mrs Marina Russell, Upwey coll. HED Hammond
O:England
A:Dorset
N:Transcribed from HAM-02-235.gif
F:HAM-05-32-23.abc
Z:EFDSS;PJHeadford
M:3/4
L:1/4
Q:3/4=45
K:D
A|D>E F|GA B|AE G|FD d|
d>B G|GA B|=cd B|A2 B|
dA B|=c2 c|BA G|F2 D/ D/|
AA B|=cE F|GF D&xxE|D2||
W:Transcribed from HAM-02-235.gif - Hammond's field notes
W:[left of title:] Mixolid 525 [right of title:] Mrs Russell of Upwey
W:[at end of tune:] Words D VII p[unclear - 65?]
W:The MIDI file HAM-05-32-23.mid has two verses, the second using the alternative note
in bar 15.
